X:1
T: The Green Jacket
C:
R:Reel
Q: 232
K:D
M:4/4
L:1/8
|:D2 ((3FED) AD ((3FED)|AB cd ed cA|D2 ((3FED) A2 d2|cA GF ED CE|
D2 ((3FED) AD ((3FED)|AB cd ed cA|D2 ((3FED) A2 d2|cA GE ED D2|
fd ((3ddd) fd df|ec ((3ccc) ef ge|fd ((3ddd) fg ed|cA GE ED D2|
fe de fe df|ed cd ef ge|af ge f2 ed|cA GF ED D2:|
